src/Pure/16/symbolic/actions/money-none-symbolic.svg

<svg width="16px" height="16px" version="1.1">
 <path d="m8 1v2h-3c-1.662 0-3 1.338-3 3s1.338 3 3 3h3v4h-5v1h5v2h1v-2h3c1.662 0 3-1.338 3-3s-1.338-3-3-3h-3v-4h5v-1h-5v-2zm-3 3h3v4h-3c-1.108 0-2-0.892-2-2s0.892-2 2-2zm4 5h3c1.108 0 2 0.892 2 2s-0.892 2-2 2h-3z" fill="#363636" opacity=".35"/>
 <rect transform="rotate(45)" x=".31371" y="-.5" width="22" height="1" rx=".5" ry=".5" fill="#363636"/>
</svg>

<?xml version="1.0" encoding="UTF-8" standalone="no"?>
<svg
   width="16px"
   height="16px"
   version="1.1"
   id="svg1"
   sodipodi:docname="money-none-symbolic.svg"
   inkscape:version="1.4.2 (ebf0e940d0, 2025-05-08)"
   xmlns:inkscape="http://www.inkscape.org/namespaces/inkscape"
   xmlns:sodipodi="http://sodipodi.sourceforge.net/DTD/sodipodi-0.dtd"
   xmlns="http://www.w3.org/2000/svg"
   xmlns:svg="http://www.w3.org/2000/svg">
  <defs
      id="defs1">
      <style
          id="current-color-scheme"
          type="text/css">
          .ColorScheme-Text { color:#363636; }
      </style>
  </defs>
  <sodipodi:namedview
     id="namedview1"
     pagecolor="#ffffff"
     bordercolor="#000000"
     borderopacity="0.25"
     inkscape:showpageshadow="2"
     inkscape:pageopacity="0.0"
     inkscape:pagecheckerboard="0"
     inkscape:deskcolor="#d1d1d1"
     inkscape:zoom="49.6875"
     inkscape:cx="8"
     inkscape:cy="8"
     inkscape:window-width="1920"
     inkscape:window-height="1010"
     inkscape:window-x="0"
     inkscape:window-y="0"
     inkscape:window-maximized="1"
     inkscape:current-layer="svg1" />
  <path
     id="path1"
     d="M 8 1 L 8 3 L 5 3 C 3.338 3 2 4.338 2 6 C 2 7.662 3.338 9 5 9 L 8 9 L 8 13 L 3 13 L 3 14 L 8 14 L 8 16 L 9 16 L 9 14 L 12 14 C 13.662 14 15 12.662 15 11 C 15 9.338 13.662 8 12 8 L 9 8 L 9 4 L 14 4 L 14 3 L 9 3 L 9 1 L 8 1 z M 5 4 L 8 4 L 8 8 L 5 8 C 3.892 8 3 7.108 3 6 C 3 4.892 3.892 4 5 4 z M 9 9 L 12 9 C 13.108 9 14 9.892 14 11 C 14 12.108 13.108 13 12 13 L 9 13 L 9 9 z "
     style="fill:currentColor;opacity:0.35"
     class="ColorScheme-Text" />
  <rect
     transform="rotate(45)"
     x=".31371"
     y="-.5"
     width="22"
     height="1"
     rx=".5"
     ry=".5"
     style="fill:currentColor;paint-order:normal"
     class="ColorScheme-Text"
     id="rect1" />
</svg>
